src/actions/24/lensautofix.svg

<svg xmlns="http://www.w3.org/2000/svg" viewBox="0 0 24 24">
  <defs id="defs3051">
    <style type="text/css" id="current-color-scheme">
      .ColorScheme-Text {
        color:#363636;
      }
      .ColorScheme-Highlight {
        color:#3daee9;
      }
      </style>
  </defs><g transform="translate(1,1)">
 <path 
     style="fill:currentColor;fill-opacity:1;stroke:none" 
     d="M 11.095703 7 C 8.8865641 7.0000001 7.0957031 8.790861 7.0957031 11 C 7.0957031 13.209139 8.8865641 15 11.095703 15 C 13.304842 15 15.095703 13.209139 15.095703 11 C 15.094303 8.9251701 13.506608 7.1958833 11.439453 7.0175781 C 11 7 11.095703 7 11.095703 7 z M 11.095703 8 C 12.752557 8 14.095703 9.3431458 14.095703 11 C 14.095703 12.656854 12.752557 14 11.095703 14 C 9.4388489 14 8.0957031 12.656854 8.0957031 11 C 8.0957031 9.3431458 9.4388489 8.0000001 11.095703 8 z M 11.095703 9 C 9.9877032 9 9.0957031 9.892 9.0957031 11 C 9.0957031 12.108 9.9877032 13 11.095703 13 C 12.203703 13 13.095703 12.108 13.095703 11 C 13.095703 10.79519 13.05668 10.601795 13 10.416016 C 12.842112 10.759733 12.50002 11 12.095703 11 C 11.541703 11 11.095703 10.554 11.095703 10 C 11.095703 9.5956829 11.335971 9.253585 11.679688 9.0957031 C 11.493908 9.0390166 11.300513 9 11.095703 9 z "
     class="ColorScheme-Text"
     />
 <path 
     style="fill:currentColor;fill-opacity:1;stroke:none" 
     d="M 11 4 A 7 7 0 0 0 4 11 A 7 7 0 0 0 11 18 A 7 7 0 0 0 18 11 A 7 7 0 0 0 11 4 z M 11 5 A 6 6 0 0 1 17 11 A 6 6 0 0 1 11 17 A 6 6 0 0 1 5 11 A 6 6 0 0 1 11 5 z "
     class="ColorScheme-Highlight"
     />
</g></svg>

<svg xmlns="http://www.w3.org/2000/svg" viewBox="0 0 24 24">
    <path d="M11.096 7a4 4 0 1 0 4 4 4 4 0 0 0-3.657-3.982C11 7 11.096 7 11.096 7zm0 1a3 3 0 1 1 0 6 3 3 0 0 1 0-6zm0 1c-1.108 0-2 .892-2 2s.892 2 2 2 2-.892 2-2c0-.205-.04-.398-.096-.584a.998.998 0 1 1-1.32-1.32A1.989 1.989 0 0 0 11.096 9z" style="fill:currentColor;fill-opacity:1;stroke:none;color:#050505;opacity:.7" transform="translate(1 1)"/>
    <path d="M11 4a7 7 0 0 0-7 7 7 7 0 0 0 7 7 7 7 0 0 0 7-7 7 7 0 0 0-7-7zm0 1a6 6 0 0 1 6 6 6 6 0 0 1-6 6 6 6 0 0 1-6-6 6 6 0 0 1 6-6z" style="fill:currentColor;fill-opacity:1;stroke:none;color:#a0b6cb" transform="translate(1 1)"/>
</svg>
